icons/lines/keyboard.svg

<svg xmlns="http://www.w3.org/2000/svg" width="24" height="24" viewBox="0 0 24 24" fill="none" stroke="currentColor" stroke-width="2" stroke-linecap="round" stroke-linejoin="round">
  <path d="M10.094 10h.01" />
  <path d="M13.5 10H17" />
  <path d="M16.5 4c.62 0 1.17.02 1.66.09 2.63.29 3.34 1.53 3.34 4.91v6c0 3.38-.71 4.62-3.34 4.91-.49.07-1.04.09-1.66.09h-9c-.62 0-1.17-.02-1.66-.09C3.21 19.62 2.5 18.38 2.5 15V9c0-3.38.71-4.62 3.34-4.91C6.33 4.02 6.88 4 7.5 4z" />
  <path d="M7 15.5h10" />
  <path d="M7.094 10h.01" />
</svg>

<svg xmlns="http://www.w3.org/2000/svg" width="24" height="24" viewBox="0 0 24 24" fill="none" stroke="currentColor" stroke-width="2" stroke-linecap="round" stroke-linejoin="round" >
  <path d="M7.5 4H16.5C17.12 4 17.67 4.02 18.16 4.09C20.79 4.38 21.5 5.62 21.5 9V15C21.5 18.38 20.79 19.62 18.16 19.91C17.67 19.98 17.12 20 16.5 20H7.5C6.88 20 6.33 19.98 5.84 19.91C3.21 19.62 2.5 18.38 2.5 15V9C2.5 5.62 3.21 4.38 5.84 4.09C6.33 4.02 6.88 4 7.5 4Z"/>
  <path d="M13.5 10H17"/>
  <path d="M7 15.5H7.02H17"/>
  <path d="M10.0941 10H10.1031"/>
  <path d="M7.09412 10H7.1031"/>
  </svg>
